packages/match-icons/twilio/svg/headphone.svg

<svg fill="none" height="32" viewBox="0 0 32 32" width="32" xmlns="http://www.w3.org/2000/svg"><g stroke="#394762" stroke-width="1.7"><path d="m4.08391 23.4352c-1.43137 0-3.08385-.514-3.08385-2.8825 0-2.2572 1.65248-2.7712 3.08385-2.7712"/><path clip-rule="evenodd" d="m8.19526 27.0329h-2.01135c-1.58565 0-2.09962-1.028-2.09962-2.5922v-7.7764c0-1.4529.6237-2.994 2.0559-2.994h2.05507z" fill-rule="evenodd"/><path d="m27.7261 22.9212c1.4306 0 3.0831-.514 3.0831-2.5699s-1.6525-2.5691-3.0831-2.5691"/><path clip-rule="evenodd" d="m23.614 27.0329h2.0114c1.5864 0 2.1004-1.028 2.1004-2.5922v-7.7764c0-1.4529-1.0279-2.994-2.5699-2.994h-1.5419z" fill-rule="evenodd"/><path d="m6.83203 13.6701c0-5.01104 4.06147-8.66992 9.07257-8.66992 5.0102 0 9.0725 3.65888 9.0725 8.66992"/></g></svg>

<svg width="32" height="32" viewBox="0 0 32 32" fill="none" xmlns="http://www.w3.org/2000/svg">
<path d="M4.08391 23.4352C2.65254 23.4352 1.00006 22.9212 1.00006 20.5527C1.00006 18.2955 2.65254 17.7815 4.08391 17.7815" stroke="#394762" stroke-width="1.7"/>
<path fill-rule="evenodd" clip-rule="evenodd" d="M8.19526 27.0329H6.18391C4.59826 27.0329 4.08429 26.0049 4.08429 24.4407V16.6643C4.08429 15.2114 4.70799 13.6703 6.14019 13.6703H8.19526V27.0329Z" stroke="#394762" stroke-width="1.7"/>
<path d="M27.7261 22.9212C29.1567 22.9212 30.8092 22.4072 30.8092 20.3513C30.8092 18.2954 29.1567 17.7822 27.7261 17.7822" stroke="#394762" stroke-width="1.7"/>
<path fill-rule="evenodd" clip-rule="evenodd" d="M23.614 27.0329H25.6254C27.2118 27.0329 27.7258 26.0049 27.7258 24.4407V16.6643C27.7258 15.2114 26.6979 13.6703 25.1559 13.6703H23.614V27.0329Z" stroke="#394762" stroke-width="1.7"/>
<path d="M6.83203 13.6701C6.83203 8.65906 10.8935 5.00018 15.9046 5.00018C20.9148 5.00018 24.9771 8.65906 24.9771 13.6701" stroke="#394762" stroke-width="1.7"/>
</svg>
